X: 182
T: Irish Lilt
N: Second dance in the Irish Lilt series.
B: 204 Favourite Country Dances
N: Published by Straight & Skillern, London ca.1775
F: http://imslp.org/wiki/204_Favourite_Country_Dances_(Various) p.91 #182
Z: 2014 John Chambers <jc:trillian.mit.edu>
M: 2/4
L: 1/8
K: D
% - - - - - - - - - - - - - - - - - - - - - - - - -
|:\
dBAF | A2A2 | d2 (e/f/g) | feec |\
dBAF | A2A2 | d2 (e/f/g) | fdd2 :|
|:\
fd (d/e/f/g/) | a2gf | gaba | geec |\
dBAF | A2A2 | d2 (e/f/g) | fdd2 :|
% - - - - - - - - - - - - - - - - - - - - - - - - -
%%begintext align
%% The 1st Man cast off and turn the 3d Wo. .|. the 1st
%% Wo. cast off & turn the 3d Man :| lead thro' the 3d
%% Cu. & turn your Partner :|. lead up to the top and
%% cast off :|: 1st Man set & turn the 3d Wo. the 1st Wo.
%% set & turn the 2d Man at the same time .|| 1st Man
%% set & turn the 2d Wo. 1st Wo. set & turn the 3d Man at
%% the same time .||. hands 6 round :||. Right & Left :||:
%%endtext

%%sep 1 1 500
%%sep 1 1 500
